static/images/clients/svg/apotekhjartat.svg

<svg fill="none" height="24" viewBox="0 0 129 24" width="129" xmlns="http://www.w3.org/2000/svg"><g clip-rule="evenodd" fill="#282828" fill-rule="evenodd"><path d="m8.09759 2.81445c-.84486 0-1.35339.54399-1.69263 1.25004l-6.250654 14.46341c-.1685826.1778-.15398809.36-.15398809.7116 0 .7002.67316209 1.404 1.34632209 1.404.67625 0 1.17784-.3493 1.34646-1.0579l1.34626-3.3464h4.21196c.67329 0 1.3654-.5254 1.3654-1.2311 0-.7061-.69211-1.4231-1.3654-1.4231h-3.01943l2.8657-7.05859 3.01941 7.05859 1.0194 2.6542 1.3462 3.3464c.3364.5318.8465 1.0579 1.5195 1.0579.6762 0 1.3462-.7002 1.3462-1.5772 0-.1745-.0045-.3606-.1728-.5384l-6.23154-14.46341c-.33633-.70605-.85167-1.25004-1.69264-1.25004zm33.71651 0c-5.0594 0-8.5978 4.06343-8.5978 9.00095 0 4.9374 3.5384 9.0012 8.5978 9.0012 5.0562 0 8.7696-4.0638 8.7696-9.0012 0-4.93752-3.548-9.00095-8.7696-9.00095zm41.4872.19233c-.8497 0-1.5211.70322-1.5211 1.57727v14.48225c0 .877.6714 1.5772 1.5211 1.5772.6681 0 1.3459-.7002 1.3459-1.5772v-3.5387l2.6919-2.8274 5.4032 7.2317c.3373.3545.6681.7116 1.174.7116.84 0 1.5211-.7002 1.5211-1.5772 0-.3516-.1751-.7223-.347-1.0771l-5.7308-7.2314 5.2313-5.11614c.3309-.35448.4995-.70864.4995-1.2308 0-.70637-.4995-1.40408-1.3459-1.40408-.506 0-.8335.16452-1.1741.51933l-7.9232 8.28939v-7.23145c0-.87405-.6778-1.57727-1.3459-1.57727zm-63.4114.17296c-.6733 0-1.3462.69956-1.3462 1.57717v14.30939c0 .877.6729 1.5772 1.3462 1.5772.8439 0 1.5195-.7002 1.5195-1.5772v-4.2505h3.3849c3.7083 0 6.5585-1.9255 6.5585-5.80833 0-3.53121-2.3549-5.82773-6.2316-5.82773zm32.0411 0c-.6746 0-1.346.7041-1.346 1.40431 0 .70929.6714 1.42312 1.346 1.42312h4.041v13.05913c0 .877.6941 1.5772 1.5373 1.5772.8368 0 1.5016-.7002 1.5016-1.5772v-13.05913h4.0573c.6778 0 1.3459-.71383 1.3459-1.42312 0-.70021-.6681-1.40431-1.3459-1.40431zm15.8496 0c-.8465 0-1.5211.69956-1.5211 1.57717v14.13649c0 .8747.6746 1.5769 1.5211 1.5769h9.788c.6778 0 1.3492-.527 1.3492-1.404 0-.706-.6714-1.2499-1.3492-1.2499h-8.2702v-4.7507h7.0799c.6746 0 1.346-.5439 1.346-1.2502 0-.8838-.6714-1.404-1.346-1.404h-7.0799v-4.59665h8.0983c.8465 0 1.3459-.52151 1.3459-1.2308 0-.87405-.4994-1.40431-1.3459-1.40431zm-25.9652 2.46192c3.3697 0 5.7307 2.81966 5.7307 6.17384 0 3.3534-2.361 6.1737-5.7307 6.1737-3.2043 0-5.5589-2.8203-5.5589-6.1737 0-3.35418 2.3546-6.17384 5.5589-6.17384zm-20.406.36551h3.3849c2.1911 0 3.6927 1.06151 3.6927 3.0003 0 1.93783-1.5016 3.17353-3.6927 3.17353h-3.3849z"/><path d="m128.485 7.06243c0-1.77015-.675-3.53122-2.021-4.94688-1.346-1.409307-3.039-2.11555-4.722-2.11555h-.172c-1.515 0-3.366.706243-4.55 2.11565l-4.048 4.06051c-.506.70929-.506 1.58333 0 2.11555.509.70961 1.515.70961 2.024 0l4.044-4.05403c.847-.88345 1.693-1.238 2.702-1.238.843 0 1.683.35455 2.698 1.238.84.87762 1.178 1.93848 1.178 2.82485 0 1.05177-.338 1.93879-1.178 2.82192l-10.284 10.76135-10.459-10.76135c-.84-.88313-1.178-1.94723-1.178-2.82192 0-1.0641.338-1.94723 1.178-2.82485.843-.88345 1.693-1.238 2.698-1.238.846 0 1.855.35455 2.702 1.238l.168.34541c.675.53221 1.515.53221 2.189 0 .51-.70021.51-1.58341 0-2.11578l-.334-.35157c-1.349-1.4094-3.039-2.11564271-4.725-2.11564271-1.683 0-3.37.70624271-4.722 2.11564271-1.346 1.41557-2.0207 3.17664-2.0207 4.94688 0 1.76107.6747 3.52178 2.0207 4.93748l10.959 11.2906c.34.5316.849.7093 1.355.7093h.169c.499 0 1.009-.1777 1.346-.7093l10.962-11.2906c1.346-1.4157 2.021-3.17641 2.021-4.93748z"/></g></svg>

<svg width="129" height="24" viewBox="0 0 129 24" fill="none" xmlns="http://www.w3.org/2000/svg">
<path fill-rule="evenodd" clip-rule="evenodd" d="M8.09759 2.81445C7.25273 2.81445 6.7442 3.35844 6.40496 4.06449L0.154306 18.5279C-0.0142766 18.7057 0.000317906 18.8879 0.000317906 19.2395C0.000317906 19.9397 0.67348 20.6435 1.34664 20.6435C2.02289 20.6435 2.52448 20.2942 2.6931 19.5856L4.03936 16.2392H8.25132C8.92461 16.2392 9.61672 15.7138 9.61672 15.0081C9.61672 14.302 8.92461 13.585 8.25132 13.585H5.23189L8.09759 6.52641L11.117 13.585L12.1364 16.2392L13.4826 19.5856C13.819 20.1174 14.3291 20.6435 15.0021 20.6435C15.6783 20.6435 16.3483 19.9433 16.3483 19.0663C16.3483 18.8918 16.3438 18.7057 16.1755 18.5279L9.94396 4.06449C9.60763 3.35844 9.09229 2.81445 8.25132 2.81445H8.09759V2.81445ZM41.8141 2.81445C36.7547 2.81445 33.2163 6.87788 33.2163 11.8154C33.2163 16.7528 36.7547 20.8166 41.8141 20.8166C46.8703 20.8166 50.5837 16.7528 50.5837 11.8154C50.5837 6.87788 47.0357 2.81445 41.8141 2.81445V2.81445ZM83.3013 3.00678C82.4516 3.00678 81.7802 3.71 81.7802 4.58405V19.0663C81.7802 19.9433 82.4516 20.6435 83.3013 20.6435C83.9694 20.6435 84.6472 19.9433 84.6472 19.0663V15.5276L87.3391 12.7002L92.7423 19.9319C93.0796 20.2864 93.4104 20.6435 93.9163 20.6435C94.7563 20.6435 95.4374 19.9433 95.4374 19.0663C95.4374 18.7147 95.2623 18.344 95.0904 17.9892L89.3596 10.7578L94.5909 5.64166C94.9218 5.28718 95.0904 4.93302 95.0904 4.41086C95.0904 3.70449 94.5909 3.00678 93.7445 3.00678C93.2385 3.00678 92.911 3.1713 92.5704 3.52611L84.6472 11.8155V4.58405C84.6472 3.71 83.9694 3.00678 83.3013 3.00678V3.00678ZM19.8899 3.17974C19.2166 3.17974 18.5437 3.8793 18.5437 4.75691V19.0663C18.5437 19.9433 19.2166 20.6435 19.8899 20.6435C20.7338 20.6435 21.4094 19.9433 21.4094 19.0663V14.8158H24.7943C28.5026 14.8158 31.3528 12.8903 31.3528 9.00747C31.3528 5.47626 28.9979 3.17974 25.1212 3.17974H19.8899V3.17974ZM51.931 3.17974C51.2564 3.17974 50.585 3.88384 50.585 4.58405C50.585 5.29334 51.2564 6.00717 51.931 6.00717H55.972V19.0663C55.972 19.9433 56.6661 20.6435 57.5093 20.6435C58.3461 20.6435 59.0109 19.9433 59.0109 19.0663V6.00717H63.0682C63.746 6.00717 64.4141 5.29334 64.4141 4.58405C64.4141 3.88384 63.746 3.17974 63.0682 3.17974H51.931V3.17974ZM67.7806 3.17974C66.9341 3.17974 66.2595 3.8793 66.2595 4.75691V18.8934C66.2595 19.7681 66.9341 20.4703 67.7806 20.4703H77.5686C78.2464 20.4703 78.9178 19.9433 78.9178 19.0663C78.9178 18.3603 78.2464 17.8164 77.5686 17.8164H69.2984V13.0657H76.3783C77.0529 13.0657 77.7243 12.5218 77.7243 11.8155C77.7243 10.9317 77.0529 10.4115 76.3783 10.4115H69.2984V5.81485H77.3967C78.2432 5.81485 78.7426 5.29334 78.7426 4.58405C78.7426 3.71 78.2432 3.17974 77.3967 3.17974H67.7806V3.17974ZM41.8154 5.64166C45.1851 5.64166 47.5461 8.46132 47.5461 11.8155C47.5461 15.1689 45.1851 17.9892 41.8154 17.9892C38.6111 17.9892 36.2565 15.1689 36.2565 11.8155C36.2565 8.46132 38.6111 5.64166 41.8154 5.64166V5.64166ZM21.4094 6.00717H24.7943C26.9854 6.00717 28.487 7.06868 28.487 9.00747C28.487 10.9453 26.9854 12.181 24.7943 12.181H21.4094V6.00717V6.00717Z" fill="#282828"/>
<path fill-rule="evenodd" clip-rule="evenodd" d="M128.485 7.06243C128.485 5.29228 127.81 3.53121 126.464 2.11555C125.118 0.706243 123.425 0 121.742 0H121.57C120.055 0 118.204 0.706243 117.02 2.11565L112.972 6.17616C112.466 6.88545 112.466 7.75949 112.972 8.29171C113.481 9.00132 114.487 9.00132 114.996 8.29171L119.04 4.23768C119.887 3.35423 120.733 2.99968 121.742 2.99968C122.585 2.99968 123.425 3.35423 124.44 4.23768C125.28 5.1153 125.618 6.17616 125.618 7.06253C125.618 8.1143 125.28 9.00132 124.44 9.88445L114.156 20.6458L103.697 9.88445C102.857 9.00132 102.519 7.93722 102.519 7.06253C102.519 5.99843 102.857 5.1153 103.697 4.23768C104.54 3.35423 105.39 2.99968 106.395 2.99968C107.241 2.99968 108.25 3.35423 109.097 4.23768L109.265 4.58309C109.94 5.1153 110.78 5.1153 111.454 4.58309C111.964 3.88288 111.964 2.99968 111.454 2.46731L111.12 2.11574C109.771 0.70634 108.081 9.72933e-05 106.395 9.72933e-05C104.712 9.72933e-05 103.025 0.70634 101.673 2.11574C100.327 3.53131 99.6523 5.29238 99.6523 7.06262C99.6523 8.82369 100.327 10.5844 101.673 12.0001L112.632 23.2907C112.972 23.8223 113.481 24 113.987 24H114.156C114.655 24 115.165 23.8223 115.502 23.2907L126.464 12.0001C127.81 10.5844 128.485 8.82369 128.485 7.06262V7.06243Z" fill="#282828"/>
</svg>
